!!!OTL: ICH BIN SO GERN HIER OBEN
!!!ARE: Europa, Mitteleuropa, Deutschland; Schweiz
!!!SCT: B0186
!!!YEM: Copyright 1995, estate of Helmut Schaffrath.
**kern
*ICvox
*Ivox
*M2/4
*k[b-e-]
*B-:
{16d
16e-
=1
8f
8g
8f
8b-
=2
8.b-
16g
8f}
{16f
16b-
=3
8b-
16f
16dd
8.dd
16cc
=4
4b-
8r}
{8f
=5
8g
8g
8b-
8g
=6
4f
8d}
{8f
=7
8g
16g
16a
16cc
16b-
16a
16g
=8
4f
8d}
{8b-
=9
8a
8cc
8b-
8dd
=10
8cc
8ee-
8dd}
{8ff
=11
8.ff
16ee-
8dd
8cc
=12
4b-
8r}
==
!!!AGN: Natur - Lied, Berg
!!!ONB: ESAC (Essen Associative Code) Database: BOEHME
!!!AMT: simple duple
!!!AIN: vox
!!!EED: Helmut Schaffrath
!!!EEV: 1.0
*-
